admin-panel/public/icons/icon-128x128.svg

<svg xmlns="http://www.w3.org/2000/svg" width="512" height="512" fill="none" viewBox="0 0 512 512"><path fill="#fff" d="M0 0h512v512H0z"/><path fill="url(#a)" d="M261.427 258.876c-2.011 12.395-4.768 25.123-5.969 38.018-2.173 23.258-3.438 46.616-4.93 69.94-.292 4.398-2.076 6.231-6.261 6.164-7.363-.1-14.759-.1-22.122 0-4.541.067-6.488-2.299-6.196-6.764 1.395-21.525 2.336-43.083 4.379-64.541 1.492-15.661 4.379-31.222 6.747-47.415-3.276-.933-6.909-1.933-10.51-3.033-26.825-8.096-48.721-23.091-63.448-48.014-10.25-17.36-15.181-36.486-17.159-56.512-.422-4.431-.681-8.863-.941-13.295-.227-4.065 1.817-6.23 5.709-6.264 7.363-.1 14.759-.066 22.123 0 4.314.034 5.611 2.566 5.806 6.731.811 18.959 4.152 37.285 14.5 53.512 12.131 18.926 30.199 28.29 51.024 33.188 2.887.666 3.439-1.167 4.185-3.366 5.968-18.159 13.332-35.619 24.133-51.38 13.884-20.225 31.497-35.053 55.923-39.385 14.694-2.599 29.226-2.565 41.877 7.164 11.937 9.197 16.316 22.225 15.635 36.953-1.038 22.524-10.704 41.35-26.502 56.378-22.447 21.392-49.467 31.521-80.121 31.288-2.076 0-4.184 0-6.26.033-.227.033-.519.233-1.622.6m10.12-35.82c.682.367.941.567 1.233.633.454.067.973.1 1.427.067 23.031-1.233 42.591-9.829 57.156-28.755 5.546-7.231 9.277-15.328 10.25-24.591.811-7.897-2.011-11.162-9.699-10.929-10.218.3-19.463 3.765-27.475 10.296-17.062 13.795-25.431 33.22-32.892 53.279"/><defs><linearGradient id="a" x1="255.5" x2="255.5" y1="373" y2="125" gradientUnits="userSpaceOnUse"><stop stop-color="#03533a"/><stop offset=".697" stop-color="#07b981"/></linearGradient></defs></svg>

<svg width="512" height="512" viewBox="0 0 512 512" fill="none" xmlns="http://www.w3.org/2000/svg">
<rect width="512" height="512" fill="white"/>
<path d="M261.427 258.876C259.416 271.271 256.659 283.999 255.458 296.894C253.285 320.152 252.02 343.51 250.528 366.834C250.236 371.232 248.452 373.065 244.267 372.998C236.904 372.898 229.508 372.898 222.145 372.998C217.604 373.065 215.657 370.699 215.949 366.234C217.344 344.709 218.285 323.151 220.328 301.693C221.82 286.032 224.707 270.471 227.075 254.278C223.799 253.345 220.166 252.345 216.565 251.245C189.74 243.149 167.844 228.154 153.117 203.231C142.867 185.871 137.936 166.745 135.958 146.719C135.536 142.288 135.277 137.856 135.017 133.424C134.79 129.359 136.834 127.194 140.726 127.16C148.089 127.06 155.485 127.094 162.849 127.16C167.163 127.194 168.46 129.726 168.655 133.891C169.466 152.85 172.807 171.176 183.155 187.403C195.286 206.329 213.354 215.693 234.179 220.591C237.066 221.257 237.618 219.424 238.364 217.225C244.332 199.066 251.696 181.606 262.497 165.845C276.381 145.62 293.994 130.792 318.42 126.46C333.114 123.861 347.646 123.895 360.297 133.624C372.234 142.821 376.613 155.849 375.932 170.577C374.894 193.101 365.228 211.927 349.43 226.955C326.983 248.347 299.963 258.476 269.309 258.243C267.233 258.243 265.125 258.243 263.049 258.276C262.822 258.309 262.53 258.509 261.427 258.876ZM271.547 223.056C272.229 223.423 272.488 223.623 272.78 223.689C273.234 223.756 273.753 223.789 274.207 223.756C297.238 222.523 316.798 213.927 331.363 195.001C336.909 187.77 340.64 179.673 341.613 170.41C342.424 162.513 339.602 159.248 331.914 159.481C321.696 159.781 312.451 163.246 304.439 169.777C287.377 183.572 279.008 202.997 271.547 223.056Z" fill="url(#paint0_linear_38_126)"/>
<defs>
<linearGradient id="paint0_linear_38_126" x1="255.5" y1="373" x2="255.5" y2="125" gradientUnits="userSpaceOnUse">
<stop stop-color="#03533A"/>
<stop offset="0.697115" stop-color="#07B981"/>
</linearGradient>
</defs>
</svg>
